X: 1
T: V\"ava vadmal III
O: V\"ackels\aang
S: Matt Fichtenbaum via scand list, 2007-4-1 [Note the month and day]
M: 3/4
L: 1/8
K: D
!Intro!\
|  c2 A2 ^c>d | e<f d4 ||
|: c2 A2 ^c>d | e<f d<e c>A | c2 c<A ^c>d |1 e<f d2- d>d :|2 e<f d2- d>e ||
|: f2 d<f d>f | e2 (3ece c>e | f2 d<f d>f | e{fe}^c A2- A>A | c2 A2 ^c>d |
| e>f d>e c>A | c2 c<A ^c>d |1 e<f d2- d>e :|2 e<f d4 |]
